X:1
T:Title
%%score { ( 1 3 ) | 2 }
L:1/8
M:4/4
K:A
V:1 treble nm="Grand Piano"
V:3 treble 
V:2 bass 
V:1
 z4 z2[Q:1/4=100] [A,C]>[B,D] | [CE]2 [Ec]2 [Ec]2 A>B | A2 G2 G2 E>F | E2 [Gd]2 [Gd]2 [Ac]>[GB] | %4
 [GB]2 A2 E2 [CA]>[DB] | z2 [^Ec]2 z4 |[M:9/8] [DFB]2 [CFc]- [CFc] [Fd]2- [Fd] [FBd]2 | %7
[M:4/4] [EAc]2 [CEA]>[CEA] [DEA]2 [DEG]2 |[M:3/4] [CEA]6 |[M:1/4] C>D | %10
[M:4/4] [A,CE]>[A,CE] [A,CE]4 F>G | [DB]>[CA] [CA]4 A>F | G>G G4 F2 | [A,CE]>[A,CE] [A,CE]4 C>D | %14
 [A,CE]>[A,CE] [A,CE]4 F>G | [DB]>[CA] [CA]4 G>A | [^DB]3- [DB]/[DB]/ [Dc]2 [DB]2 | B6 z2 | %18
 z2 [Ac]4 z2 | [Ac]>[GB] [GB]4 [GB]>[Ac] | [Gd]3- [Gd]/[EG]/ [EA]2 [EB]2 | [Ec]6 z2 | z2 [Ac]4 z2 | %23
 z2 [Fd]4 z2 | [EAc]2 [CEA]>[CEA] [DEA]2 [DEG]2 |[M:3/4] [CEA]6 |] %26
V:2
 z4 z2 [A,,E,]>[A,,E,] | [A,,A,]2 [A,,A,]2 [A,,A,]2 [E,CE]>[E,DE] | %2
 [E,CE]2 [E,B,E]2 [E,B,E]2 [E,G,D]>[E,A,D] | [E,G,D]2 [E,B,]2 [E,B,]2 [E,E]>[E,D] | %4
 [E,D]2 [A,CE]2 [A,C]2 [A,,A,]>[A,,A,] | [A,,A,]2 .[C,G,]2 [F,A,F]2 [F,CF]>[F,CF] | %6
[M:9/8] D,2 ^A,- A, B,2- B, D,2 |[M:4/4] E,2 E,>E, E,2 E,2 |[M:3/4] A,,6 |[M:1/4] A,>B, | %10
[M:4/4] A,,>A,, A,,4 D>D | [A,,E,]>[A,,E,] [A,,E,]4 C>C | [E,B,D]>[E,B,D] [E,B,D]4 D>D | %13
 A,,>A,, A,,4 A,>B, | A,,>A,, A,,4 D>D | [A,,E,]>[A,,E,] [A,,E,]4 [E,E]>[E,E] | %16
 [B,,F,]3- [B,,F,]/[B,,F,]/ [B,,A,]2 [B,,A,]2 | [E,G,E]3- [E,G,E]/[F,A,]/ [G,B,]2 [E,B,]>[E,E] | %18
 [A,E]2 [A,E]2 A,2 G,>A, | [E,E]2 [E,E]2 [E,E]2 [E,D]>[E,C] | %20
 [E,B,]3- [E,B,]/[D,B,]/ [C,A,]2 [B,,G,]2 | [A,,A,]2 A,,2 A,,2 A,>A, | [A,E]2 [A,E]2 A,2 C,>C, | %23
 [D,A,]2 [B,,B,]2 B,,2 D,2 | E,2 E,>E, E,2 E,2 |[M:3/4] A,,6 |] %26
V:3
 x8 | x8 | x8 | x8 | x8 | [Ec]2 z B, c2 A>A |[M:9/8] x9 |[M:4/4] x8 |[M:3/4] x6 |[M:1/4] x2 | %10
[M:4/4] x8 | x8 | x8 | x8 | x8 | x8 | x8 | z2 z z/ ^D/ =D2 [Ge]>[Bd] | %18
 [Ac]>[Ac] z2 E2 [EBd]>[EAc] | x8 | x8 | z2 A,2 A,2 [ce]>[Bd] | [Ac]>[Ac] z2 E2 [A,=GA]>[A,GA] | %23
 [FA]>[Fd] z2 B,2 [FBd]2 | x8 |[M:3/4] x6 |] %26

